src/public/img/landing/new/docs-code/npm.svg

<svg width="50" height="14" viewBox="0 0 50 14" fill="none" xmlns="http://www.w3.org/2000/svg">
<path d="M15.3846 16H21.7949V12.8H28.2051V0H15.3846V16ZM21.7949 3.2H25V9.6H21.7949V3.2ZM30.7692 0V12.8H37.1795V3.2H40.3846V12.8H43.5897V3.2H46.7949V12.8H50V0H30.7692ZM0 12.8H6.41026V3.2H9.61539V12.8H12.8205V0H0V12.8Z" fill="white"/>
</svg>

<svg xmlns="http://www.w3.org/2000/svg" width="50" height="14" fill="none">
  <path fill="#fff" d="M15.385 16h6.41v-3.2h6.41V0h-12.82v16Zm6.41-12.8H25v6.4h-3.205V3.2ZM30.769 0v12.8h6.41V3.2h3.206v9.6h3.205V3.2h3.205v9.6H50V0H30.77ZM0 12.8h6.41V3.2h3.205v9.6h3.205V0H0v12.8Z"/>
</svg>
